build/images/icons/prev.svg

<svg width="70" height="70" viewBox="0 0 70 70" fill="none" xmlns="http://www.w3.org/2000/svg">
<path d="M35 1.09375C16.2695 1.09375 1.09375 16.2695 1.09375 35C1.09375 53.7305 16.2695 68.9062 35 68.9062C53.7305 68.9062 68.9062 53.7305 68.9062 35C68.9062 16.2695 53.7305 1.09375 35 1.09375ZM50.8594 41.0156H35V50.709C35 52.1719 33.2227 52.9102 32.1973 51.8711L16.5703 36.1621C15.9277 35.5195 15.9277 34.4941 16.5703 33.8516L32.1973 18.1289C33.2363 17.0898 35 17.8281 35 19.291V28.9844H50.8594C51.7617 28.9844 52.5 29.7227 52.5 30.625V39.375C52.5 40.2773 51.7617 41.0156 50.8594 41.0156Z" fill="black"/>
</svg>

<svg width="70" height="70" fill="none" xmlns="http://www.w3.org/2000/svg"><path d="M35 1.094C16.27 1.094 1.094 16.27 1.094 35 1.094 53.73 16.27 68.906 35 68.906c18.73 0 33.906-15.176 33.906-33.906C68.906 16.27 53.73 1.094 35 1.094zm15.86 39.922H35v9.693c0 1.463-1.777 2.201-2.803 1.162L16.57 36.162a1.626 1.626 0 010-2.31l15.627-15.723c1.04-1.04 2.803-.3 2.803 1.162v9.693h15.86c.902 0 1.64.739 1.64 1.641v8.75c0 .902-.738 1.64-1.64 1.64z" fill="#000"/></svg>
